X: 209
T: Bak Yine Geçti Bahar
C: İzzet Altınbaş
O: Turkey
F: http://compmusic.upf.edu/node/140
N: acemkurdi--sarki--semai--bak_yine--izzet_altinbas
N: makam= acemkurdi
N: form= sarki
N: usul= semai = 3/4
M: 3/4
L: 1/16
K: C _B   
Q: 1/4=138
%%MIDI tuningsystem comma53
A4 f8  | (3e2f2g2 f8  | e4 d4 c4  | e12  | \
w:  ARANAĞME  |   |   |   | 
A4 e8  | (3d2e2f2 e8  | d4 c4 B4  | d12  | \
w:   |   |   |   | 
A4 d8  | 
w:   | 
(3c2d2e2 d8  | c4 B4 A4  | B12  | d4 c4 B4  | \
w:   |   |   |   | 
_e4 d4 c4  | f2_e2 d2c2 B2c2  | A12  | 
w:   |   |   | 
A4 f8  | (3e2f2g2 f8  | e4 d4 c4  | e12  | \
w:  ARANAĞME  |   |   |   | 
A4 e8  | (3d2e2f2 e8  | d4 c4 B4  | d12  | \
w:   |   |   |   | 
A4 d8  | 
w:   | 
(3c2d2e2 d8  | c4 B4 A4  | B12  | d4 c4 B4  | \
w:   |   |   |   | 
_e4 d4 c4  | f2_e2 d2c2 B2c2  | A12  | 
w:   |   |   | 
f8 f4  | f12  | e4 d4 e4  | c12  | e8 e4  | e4 e8  | \
w:  Bak  yi  |  ne   |  geç ti  ba  |  har    |  Gül  ney  |  le sin   | 
d4 c4 d4  | B12  | A8 B4  | c8 d4  | _e4 d4 c4  | 
w:  ney *  le  |  sin    |  Gel me  |  yin ce   |  naz *  lı   | 
_e12  | _e4 d4 c4  | B4 d8  | c4 B4 c4  | A2B2 c2d2 e2g2  | \
w:  yâr    |  Yol  *  ney  |  le sin   |  ney *  le  |  sin   SAZ  | 
f8 f4  | f12  | e4 d4 e4  | 
w:  Bak  yi  |  ne   |  geç ti  ba  | 
c12  | e8 e4  | e4 e8  | d4 c4 d4  | B12  | A8 B4  | \
w:  har    |  Gül  ney  |  le sin   |  ney *  le  |  sin    |  Gel me  | 
c8 d4  | _e4 d4 c4  | _e12  | _e4 d4 c4  | \
w:  yin ce   |  naz *  lı   |  yâr    |  Yol  *  ney  | 
B4 d8  | 
w:  le sin   | 
c4 B4 c4  | A8 z4  | A4 f8  | (3e2f2g2 f8  | \
w:  ney *  le  |  sin    |  ARANAĞME  |   | 
e4 d4 c4  | e12  | A4 e8  | (3d2e2f2 e8  | 
w:   |   |   |   | 
d4 c4 B4  | d12  | A4 d8  | (3c2d2e2 d8  | \
w:   |   |   |   | 
c4 B4 A4  | B12  | d4 c4 B4  | _e4 d4 c4  | \
w:   |   |   |   | 
f2_e2 d2c2 B2c2  | 
w:   | 
A12  | A4 f8  | (3e2f2g2 f8  | e4 d4 c4  | e12  | \
w:   |  ARANAĞME  |   |   |   | 
A4 e8  | (3d2e2f2 e8  | d4 c4 B4  | d12  | 
w:   |   |   |   | 
A4 d8  | (3c2d2e2 d8  | c4 B4 A4  | B12  | \
w:   |   |   |   | 
d4 c4 B4  | _e4 d4 c4  | f2_e2 d2c2 B2c2  | 
w:   |   |   | 
A12  | f8 f4  | f4 f8  | e4 d4 e4  | c12  | e8 e4  | \
w:   |  Gön lün  |  de ki   |  ar *  zu  |  yu    |  Din me  | 
e8 e4  | d4 c4 d4  | B12  | A8 B4  | c8 d4  | 
w:  yen  bu   |  sı *  zı  |  yı    |  Tan rı   |  yaz mış   | 
_e4 d4 c4  | _e12  | _e4 d4 c4  | B4 d8  | \
w:  ya *  zı  |  yı    |  Kul  *  ney  |  le sin   | 
c4 B4 c4  | A2B2 c2d2 e2g2  | f8 f4  | f4 f8  | 
w:  ney *  le  |  sin   SAZ  |  Gön lün  |  de ki   | 
e4 d4 e4  | c12  | e8 e4  | e8 e4  | d4 c4 d4  | B12  | \
w:  ar *  zu  |  yu    |  Din me  |  yen  bu   |  sı *  zı  |  yı    | 
A8 B4  | c8 d4  | _e4 d4 c4  | _e12  | _e4 d4 c4  | 
w:  Tan rı   |  yaz mış   |  ya *  zı  |  yı    |  Kul  *  ney  | 
B4 d8  | c4 B4 c4  | A8 z4  | A4 f8  | (3e2f2g2 f8  | \
w:  le sin   |  ney *  le  |  sin    |  ARANAĞME  |   | 
e4 d4 c4  | e12  | A4 e8  | (3d2e2f2 e8  | 
w:   |   |   |   | 
d4 c4 B4  | d12  | A4 d8  | (3c2d2e2 d8  | \
w:   |   |   |   | 
c4 B4 A4  | B12  | d4 c4 B4  | _e4 d4 c4  | \
w:   |   |   |   | 
f2_e2 d2c2 B2c2  | 
w:   | 
A12  | A4 f8  | (3e2f2g2 f8  | e4 d4 c4  | e12  | \
w:   |  ARANAĞME  |   |   |   | 
A4 e8  | (3d2e2f2 e8  | d4 c4 B4  | d12  | 
w:   |   |   |   | 
A4 d8  | (3c2d2e2 d8  | c4 B4 A4  | B12  | \
w:   |   |   |   | 
d4 c4 B4  | _e4 d4 c4  | f2_e2 d2c2 B2c2  | 
w:   |   |   | 
A12  | f4 f8  | f4 f8  | e4 d4 e4  | c12  | e4 e8  | \
w:   |  A ğaç   |  ba kar   |  gök *  le  |  re    |  Bu lut  | 
e4 e8  | d4 c4 d4  | B12  | A4 B8  | c8 d4  | 
w:  lar  has  |  ret  *  ne  |  ye    |  Gü neş   |  yak mış   | 
_e4 d4 c4  | _e12  | _e4 d4 c4  | B4 d8  | \
w:  bir  *  ke  |  re    |  Çöl *  ney  |  le sin   | 
c4 B4 c4  | A2B2 c2d2 e2g2  | f4 f8  | f4 f8  | 
w:  ney *  le  |  sin   SAZ  |  A ğaç   |  ba kar   | 
e4 d4 e4  | c12  | e4 e8  | e4 e8  | d4 c4 d4  | B12  | \
w:  gök *  le  |  re    |  Bu lut  |  lar  has  |  ret  *  ne  |  ye    | 
A4 B8  | c8 d4  | _e4 d4 c4  | _e12  | _e4 d4 c4  | 
w:  Gü neş   |  yak mış   |  bir  *  ke  |  re    |  Çöl *  ney  | 
B4 d8  | c4 B4 c4  | A8 z4  | |


